icons/1_Primary/Discogs.svg

<svg width="1024" height="1024" fill="none" xmlns="http://www.w3.org/2000/svg"><g clip-path="url(#a)"><path d="M512 1024c282.77 0 512-229.23 512-512S794.77 0 512 0 0 229.23 0 512s229.23 512 512 512Z" fill="#56595B"/><path d="M439.84 511.58A72.58 72.58 0 0 1 512.41 439a72.528 72.528 0 0 1 51.34 21.243A72.531 72.531 0 0 1 585 511.58a72.56 72.56 0 0 1-72.57 72.56 72.567 72.567 0 0 1-72.57-72.56h-.02Zm3.18 0A69.48 69.48 0 0 0 512.41 581a69.397 69.397 0 0 0 69.4-69.38 69.488 69.488 0 0 0-69.4-69.43A69.441 69.441 0 0 0 443 511.58h.02Zm69.42-11.44a11.43 11.43 0 1 0 11.47 11.45 11.457 11.457 0 0 0-3.364-8.107 11.453 11.453 0 0 0-8.116-3.343h.01Zm-131.08 11.43a130.689 130.689 0 0 0 40.3 94.43l24.68-26.69.33.3a94.592 94.592 0 0 1 46.871-160.844 94.593 94.593 0 0 1 66.209 10.894l17.51-31.95a130.222 130.222 0 0 0-64.82-17.22c-72.27.01-131.08 58.81-131.08 131.08Zm225.73 0a94.6 94.6 0 0 1-138.64 83.79l-17.83 31.74a130.263 130.263 0 0 0 61.82 15.53c72.28 0 131.08-58.8 131.08-131.08a130.628 130.628 0 0 0-37.73-91.9L581 446.39a94.303 94.303 0 0 1 26.1 65.2l-.01-.02Zm-267.34 0a172.164 172.164 0 0 0 53.68 125l25-27.07a135.374 135.374 0 0 1-41.82-97.89c0-74.88 60.92-135.8 135.8-135.8a134.923 134.923 0 0 1 67.08 17.8l17.73-32.34a171.564 171.564 0 0 0-84.81-22.35c-95.19-.03-172.66 77.43-172.66 172.65Zm308.49 0c0 74.88-60.92 135.8-135.8 135.8a134.994 134.994 0 0 1-64.14-16.14l-18.07 32.17a171.623 171.623 0 0 0 82.21 20.86c95.22 0 172.69-77.47 172.69-172.69a172.138 172.138 0 0 0-51-122.4l-25.12 27a135.35 135.35 0 0 1 39.23 95.4Zm41.61 0c0 97.83-79.58 177.43-177.41 177.43a176.323 176.323 0 0 1-84.52-21.46l-18.18 32.36a213.214 213.214 0 0 0 102.7 26.23C630.74 726.11 727 629.87 727 511.57a213.871 213.871 0 0 0-64.38-153l-25.26 27.18a176.839 176.839 0 0 1 52.49 125.82Zm-392 0A213.89 213.89 0 0 0 365 667.24L390.23 640A176.887 176.887 0 0 1 335 511.57c0-97.82 79.59-177.41 177.41-177.41a176.266 176.266 0 0 1 87.08 22.93l17.84-32.55A213.138 213.138 0 0 0 512.44 297c-118.3 0-214.54 96.28-214.54 214.57h-.05Zm392.55-183-24.64 26.49a218.57 218.57 0 0 1 65.94 156.51c0 120.9-98.36 219.26-219.26 219.26a217.895 217.895 0 0 1-105-26.84l-18.24 32.47A255.424 255.424 0 0 0 512 768c141.39 0 256-114.64 256-256a255.244 255.244 0 0 0-77.55-183.41l-.05-.02Zm-397.27 183c0-120.9 98.36-219.26 219.26-219.26a217.836 217.836 0 0 1 107.19 28.09L637 288.65A254.455 254.455 0 0 0 516.12 256H512c-140.54.22-254.42 113.26-256 253.5v2.5a255.684 255.684 0 0 0 80.51 186.08l25.31-27.36a218.61 218.61 0 0 1-68.64-159.15h-.05Z" fill="#fff"/></g><defs><clipPath id="a"><path fill="#fff" d="M0 0h1024v1024H0z"/></clipPath></defs></svg>

<svg width="1024" height="1024" viewBox="0 0 1024 1024" fill="none" xmlns="http://www.w3.org/2000/svg">
<g clip-path="url(#clip0_2_2016)">
<path d="M512 1024C794.77 1024 1024 794.77 1024 512C1024 229.23 794.77 0 512 0C229.23 0 0 229.23 0 512C0 794.77 229.23 1024 512 1024Z" fill="#56595B"/>
<path d="M439.84 511.58C439.84 492.332 447.485 473.873 461.095 460.262C474.704 446.651 493.162 439.003 512.41 439C521.944 438.993 531.385 440.866 540.194 444.511C549.004 448.156 557.008 453.502 563.75 460.243C570.492 466.984 575.839 474.987 579.485 483.796C583.131 492.605 585.005 502.046 585 511.58C585 521.11 583.123 530.546 579.476 539.35C575.829 548.154 570.483 556.153 563.744 562.891C557.005 569.629 549.005 574.974 540.201 578.62C531.396 582.265 521.96 584.141 512.43 584.14C502.9 584.141 493.464 582.265 484.659 578.62C475.855 574.974 467.855 569.629 461.116 562.891C454.377 556.153 449.031 548.154 445.384 539.35C441.737 530.546 439.86 521.11 439.86 511.58H439.84ZM443.02 511.58C443.036 529.981 450.351 547.625 463.36 560.639C476.368 573.654 494.009 580.976 512.41 581C530.813 581 548.462 573.691 561.476 560.68C574.491 547.67 581.805 530.023 581.81 511.62C581.794 493.216 574.478 475.57 561.467 462.554C548.457 449.537 530.814 442.214 512.41 442.19C494.007 442.198 476.36 449.511 463.346 462.521C450.331 475.532 443.013 493.177 443 511.58H443.02ZM512.44 500.14C510.182 500.148 507.977 500.824 506.103 502.084C504.229 503.344 502.77 505.131 501.911 507.219C501.051 509.307 500.829 511.603 501.273 513.817C501.717 516.031 502.807 518.064 504.405 519.659C506.003 521.254 508.038 522.341 510.253 522.781C512.467 523.221 514.763 522.995 516.849 522.132C518.936 521.269 520.72 519.807 521.977 517.931C523.233 516.054 523.906 513.848 523.91 511.59C523.91 510.084 523.613 508.592 523.036 507.201C522.458 505.81 521.612 504.547 520.546 503.483C519.479 502.419 518.214 501.577 516.821 501.003C515.428 500.429 513.936 500.136 512.43 500.14H512.44ZM381.36 511.57C381.354 529.215 384.922 546.679 391.848 562.909C398.774 579.138 408.915 593.796 421.66 606L446.34 579.31L446.67 579.61C430.019 563.573 419.817 541.993 417.992 518.947C416.167 495.902 422.845 472.985 436.764 454.527C450.684 436.069 470.881 423.348 493.541 418.766C516.2 414.185 539.753 418.06 559.75 429.66L577.26 397.71C557.527 386.409 535.18 380.472 512.44 380.49C440.17 380.5 381.36 439.3 381.36 511.57ZM607.09 511.57C607.101 527.866 602.903 543.888 594.902 558.085C586.901 572.281 575.368 584.17 561.421 592.599C547.475 601.028 531.587 605.711 515.298 606.195C499.01 606.678 482.872 602.946 468.45 595.36L450.62 627.1C469.623 637.316 490.865 642.653 512.44 642.63C584.72 642.63 643.52 583.83 643.52 511.55C643.537 477.143 629.979 444.119 605.79 419.65L581 446.39C597.77 463.952 607.119 487.307 607.1 511.59L607.09 511.57ZM339.75 511.57C339.738 534.959 344.491 558.105 353.721 579.597C362.95 601.088 376.461 620.473 393.43 636.57L418.43 609.5C405.206 596.856 394.683 581.663 387.495 564.838C380.307 548.013 376.604 529.906 376.61 511.61C376.61 436.73 437.53 375.81 512.41 375.81C535.94 375.793 559.065 381.929 579.49 393.61L597.22 361.27C571.364 346.598 542.139 338.896 512.41 338.92C417.22 338.89 339.75 416.35 339.75 511.57ZM648.24 511.57C648.24 586.45 587.32 647.37 512.44 647.37C490.052 647.392 468.011 641.845 448.3 631.23L430.23 663.4C455.457 677.122 483.723 684.294 512.44 684.26C607.66 684.26 685.13 606.79 685.13 511.57C685.143 488.809 680.642 466.272 671.888 445.263C663.134 424.253 650.3 405.188 634.13 389.17L609.01 416.17C634.167 441.545 648.268 475.838 648.24 511.57ZM689.85 511.57C689.85 609.4 610.27 689 512.44 689C482.914 689.036 453.852 681.657 427.92 667.54L409.74 699.9C441.22 717.149 476.544 726.171 512.44 726.13C630.74 726.11 727 629.87 727 511.57C727.007 483.064 721.315 454.844 710.259 428.569C699.203 402.295 683.006 378.495 662.62 358.57L637.36 385.75C653.999 402.206 667.206 421.801 676.216 443.399C685.227 464.997 689.861 488.168 689.85 511.57ZM297.85 511.57C297.843 540.724 303.796 569.572 315.344 596.342C326.891 623.112 343.789 647.238 365 667.24L390.23 640C372.781 623.469 358.884 603.554 349.388 581.473C339.892 559.392 334.997 535.607 335 511.57C335 413.75 414.59 334.16 512.41 334.16C542.932 334.135 572.938 342.036 599.49 357.09L617.33 324.54C585.326 306.47 549.193 296.983 512.44 297C394.14 297 297.9 393.28 297.9 511.57H297.85ZM690.4 328.57L665.76 355.06C686.638 375.428 703.228 399.769 714.553 426.649C725.878 453.528 731.708 482.402 731.7 511.57C731.7 632.47 633.34 730.83 512.44 730.83C475.738 730.869 439.621 721.637 407.44 703.99L389.2 736.46C426.832 757.127 469.066 767.974 512 768C653.39 768 768 653.36 768 512C768.024 477.792 761.172 443.928 747.85 412.42C734.528 380.912 715.008 352.404 690.45 328.59L690.4 328.57ZM293.13 511.57C293.13 390.67 391.49 292.31 512.39 292.31C549.944 292.277 586.869 301.954 619.58 320.4L637 288.65C600.055 267.868 558.504 256.645 516.12 256H512C371.46 256.22 257.58 369.26 256 509.5V512C256.023 546.867 263.177 581.361 277.023 613.361C290.868 645.361 311.112 674.192 336.51 698.08L361.82 670.72C340.134 650.273 322.858 625.607 311.054 598.238C299.25 570.869 293.167 541.376 293.18 511.57H293.13Z" fill="white"/>
</g>
<defs>
<clipPath id="clip0_2_2016">
<rect width="1024" height="1024" fill="white"/>
</clipPath>
</defs>
</svg>
